svg/fluentui-system-icons/ic_fluent_copy_select_24_filled.svg

<svg width="24" height="24" viewBox="0 0 24 24" fill="none" xmlns="http://www.w3.org/2000/svg">
<path d="M9.25 3.5C8.2835 3.5 7.5 4.2835 7.5 5.25V6.25C7.5 6.66421 7.16421 7 6.75 7C6.33579 7 6 6.66421 6 6.25V5.25C6 3.45507 7.45507 2 9.25 2H10.25C10.6642 2 11 2.33579 11 2.75C11 3.16421 10.6642 3.5 10.25 3.5H9.25ZM12 2.75C12 2.33579 12.3358 2 12.75 2H15.25C15.6642 2 16 2.33579 16 2.75C16 3.16421 15.6642 3.5 15.25 3.5H12.75C12.3358 3.5 12 3.16421 12 2.75ZM12.75 16.5C12.3358 16.5 12 16.8358 12 17.25C12 17.6642 12.3358 18 12.75 18H15.25C15.6642 18 16 17.6642 16 17.25C16 16.8358 15.6642 16.5 15.25 16.5H12.75ZM6.75 8C7.16421 8 7.5 8.33579 7.5 8.75V11.25C7.5 11.6642 7.16421 12 6.75 12C6.33579 12 6 11.6642 6 11.25V8.75C6 8.33579 6.33579 8 6.75 8ZM22 8.75C22 8.33579 21.6642 8 21.25 8C20.8358 8 20.5 8.33579 20.5 8.75V11.25C20.5 11.6642 20.8358 12 21.25 12C21.6642 12 22 11.6642 22 11.25V8.75ZM18.75 16.5C19.7165 16.5 20.5 15.7165 20.5 14.75V13.75C20.5 13.3358 20.8358 13 21.25 13C21.6642 13 22 13.3358 22 13.75V14.75C22 16.5449 20.5449 18 18.75 18H17.75C17.3358 18 17 17.6642 17 17.25C17 16.8358 17.3358 16.5 17.75 16.5H18.75ZM20.5 5.25C20.5 4.2835 19.7165 3.5 18.75 3.5H17.75C17.3358 3.5 17 3.16421 17 2.75C17 2.33579 17.3358 2 17.75 2H18.75C20.5449 2 22 3.45507 22 5.25V6.25C22 6.66421 21.6642 7 21.25 7C20.8358 7 20.5 6.66421 20.5 6.25V5.25ZM9.25 16.5C8.2835 16.5 7.5 15.7165 7.5 14.75V13.75C7.5 13.3358 7.16421 13 6.75 13C6.33579 13 6 13.3358 6 13.75V14.75C6 16.5449 7.45507 18 9.25 18H10.25C10.6642 18 11 17.6642 11 17.25C11 16.8358 10.6642 16.5 10.25 16.5H9.25ZM2 9.24999C2 7.53918 3.32189 6.13712 5 6.00946V15C5 17.2091 6.79086 19 9 19H17.9905C17.8629 20.6781 16.4608 22 14.75 22H7.75C4.57436 22 2 19.4256 2 16.25V9.24999Z" fill="#212121"/>
</svg>

<svg xmlns="http://www.w3.org/2000/svg" width="24" height="24"><path d="M9.25 3.5A1.75 1.75 0 0 0 7.5 5.25v1a.75.75 0 0 1-1.5 0v-1A3.25 3.25 0 0 1 9.25 2h1a.75.75 0 0 1 0 1.5h-1ZM12 2.75a.75.75 0 0 1 .75-.75h2.5a.75.75 0 0 1 0 1.5h-2.5a.75.75 0 0 1-.75-.75Zm.75 13.75a.75.75 0 0 0 0 1.5h2.5a.75.75 0 0 0 0-1.5h-2.5Zm-6-8.5a.75.75 0 0 1 .75.75v2.5a.75.75 0 0 1-1.5 0v-2.5A.75.75 0 0 1 6.75 8ZM22 8.75a.75.75 0 0 0-1.5 0v2.5a.75.75 0 0 0 1.5 0v-2.5Zm-3.25 7.75a1.75 1.75 0 0 0 1.75-1.75v-1a.75.75 0 0 1 1.5 0v1A3.25 3.25 0 0 1 18.75 18h-1a.75.75 0 0 1 0-1.5h1ZM20.5 5.25a1.75 1.75 0 0 0-1.75-1.75h-1a.75.75 0 0 1 0-1.5h1A3.25 3.25 0 0 1 22 5.25v1a.75.75 0 0 1-1.5 0v-1ZM9.25 16.5a1.75 1.75 0 0 1-1.75-1.75v-1a.75.75 0 0 0-1.5 0v1A3.25 3.25 0 0 0 9.25 18h1a.75.75 0 0 0 0-1.5h-1ZM2 9.25a3.25 3.25 0 0 1 3-3.24V15a4 4 0 0 0 4 4h8.99a3.25 3.25 0 0 1-3.24 3h-7A5.75 5.75 0 0 1 2 16.25v-7Z"/></svg>
